flags/re.svg

<svg xmlns="http://www.w3.org/2000/svg" width="512" height="512" fill="none"><g clip-path="url(#a)"><path fill="var(--flag-palette-blue, #0052b4)" d="M0 0h512v512H0z"/><path fill="var(--flag-palette-bright-red, #d80027)" d="M0 512h512L256 256z"/><path fill="var(--flag-palette-yellow, #ffda44)" fill-rule="evenodd" d="m0 64 256 192L0 224v64l256-32 256 32v-64l-256 32L512 64V0h-64L256 256 288 0h-64l32 256L64 0H0z" clip-rule="evenodd"/></g><defs><clipPath id="a"><path fill="#fff" d="M0 0h512v512H0z"/></clipPath></defs></svg>

<svg width="512" height="512" viewBox="0 0 512 512" fill="none" xmlns="http://www.w3.org/2000/svg">
<rect width="512" height="512" fill="var(--flag-palette-blue, #0052b4)"/>
<path d="M0 512L512 512L256 256L0 512Z" fill="var(--flag-palette-bright-red, #d80027)"/>
<path fill-rule="evenodd" clip-rule="evenodd" d="M0 64L256 256L0 224V288L256 256L512 288V224L256 256L512 64V0H448L256 256L288 0H224L256 256L64 0H0V64Z" fill="var(--flag-palette-yellow, #ffda44)"/>
</svg>
